;FLAVOR:Marlin
;TIME:3199
;Filament used: 1.99216m
;Layer height: 0.2
;MINX:122.212
;MINY:86.9
;MINZ:0.2
;MAXX:177.761
;MAXY:133.1
;MAXZ:15
;POSTPROCESSED
;Generated with Cura_SteamEngine 4.6.1
M140 S50
M105
M190 S50
M104 S200
M105
M109 S200
M82 ;absolute extrusion mode
M201 X500.00 Y500.00 Z100.00 E5000.00 ;Setup machine max acceleration
M203 X500.00 Y500.00 Z10.00 E50.00 ;Setup machine max feedrate
M204 P500.00 R1000.00 T500.00 ;Setup Print/Retract/Travel acceleration
M205 X8.00 Y8.00 Z0.40 E5.00 ;Setup Jerk
M220 S100 ;Reset Feedrate
M221 S100 ;Reset Flowrate

G28 ;Home
G29 ;Autolevel

G92 E0 ;Reset Extruder
G1 Z2.0 F3000 ;Move Z Axis up
G1 X10.1 Y20 Z0.28 F5000.0 ;Move to start position
G1 X10.1 Y200.0 Z0.28 F1500.0 E15 ;Draw the first line
G1 X10.4 Y200.0 Z0.28 F5000.0 ;Move to side a little
G1 X10.4 Y20 Z0.28 F1500.0 E30 ;Draw the second line
G92 E0 ;Reset Extruder
G1 Z2.0 F3000 ;Move Z Axis up
G92 E0
G92 E0
G1 F2700 E-5
;LAYER_COUNT:75
;LAYER:0
M107
G0 F6000 X157.596 Y87.321 Z0.2
;TYPE:SKIRT
G1 F2700 E0
G1 F1200 X158.665 Y87.35 E0.03557
G1 X161.887 Y87.34 E0.14273
G1 X163.154 Y87.315 E0.18488
G1 X163.716 Y87.319 E0.20357
G1 X164.929 Y87.402 E0.24401
G1 X165.536 Y87.496 E0.26444
G1 X166.277 Y87.634 E0.28951
G1 X167.157 Y87.839 E0.31956
G1 X168.337 Y88.248 E0.3611
G1 X169.54 Y88.793 E0.40503
G1 X170.044 Y89.077 E0.42427
G1 X171.207 Y89.821 E0.47019
G1 X171.831 Y90.314 E0.49664
G1 X172.236 Y90.66 E0.51436
G1 X172.896 Y91.276 E0.54438
G1 X173.473 Y91.916 E0.57304
G1 X174.327 Y93.012 E0.61926
G1 X174.785 Y93.743 E0.64795
G1 X175.064 Y94.233 E0.6667
G1 X175.476 Y95.037 E0.69675
G1 X175.868 Y96.029 E0.73223
G1 X176.057 Y96.591 E0.75195
G1 X176.307 Y97.459 E0.78199
G1 X176.494 Y98.453 E0.81563
G1 X176.563 Y98.955 E0.83249
G1 X176.65 Y99.935 E0.86521
G1 X176.669 Y100.693 E0.89043
G1 X176.652 Y102.983 E0.9666
G1 X176.739 Y106.447 E1.08184
G1 X177.34 Y120.183 E1.53914
G1 X177.361 Y120.85 E1.56134
G1 X177.36 Y121.479 E1.58226
G1 X177.341 Y122.06 E1.60159
G1 X177.271 Y122.961 E1.63165
G1 X177.122 Y123.852 E1.6617
G1 X176.895 Y124.726 E1.69173
G1 X176.491 Y125.815 E1.73036
G1 X175.946 Y126.962 E1.7726
G1 X175.477 Y127.734 E1.80264
G1 X174.942 Y128.462 E1.83269
G1 X174.169 Y129.318 E1.87105
G1 X173.244 Y130.176 E1.91302
G1 X172.523 Y130.72 E1.94306
G1 X171.757 Y131.198 E1.97309
G1 X170.878 Y131.64 E2.00581
G1 X169.737 Y132.102 E2.04676
G1 X168.87 Y132.355 E2.07679
G1 X167.734 Y132.566 E2.11522
G1 X166.341 Y132.673 E2.16169
G1 X134.525 Y132.7 E3.2199
G1 X133.724 Y132.69 E3.24654
G1 X132.822 Y132.638 E3.27659
G1 X132.228 Y132.559 E3.29652
G1 X130.944 Y132.31 E3.34002
G1 X130.079 Y132.048 E3.37008
G1 X129.242 Y131.711 E3.40009
G1 X128.25 Y131.193 E3.43732
G1 X127.194 Y130.518 E3.479
G1 X126.486 Y129.958 E3.50902
G1 X125.83 Y129.337 E3.53907
G1 X125.158 Y128.568 E3.57304
G1 X124.416 Y127.564 E3.61456
G1 X123.955 Y126.788 E3.64458
G1 X123.565 Y125.973 E3.67463
G1 X123.231 Y125.074 E3.70653
G1 X122.878 Y123.835 E3.74938
G1 X122.72 Y122.946 E3.77941
G1 X122.634 Y121.787 E3.81806
G1 X122.618 Y120.872 E3.8485
G1 X122.612 Y99.371 E4.56363
G1 X122.622 Y98.621 E4.58857
G1 X122.649 Y98.018 E4.60865
G1 X122.69 Y97.468 E4.62699
G1 X122.797 Y96.571 E4.65704
G1 X122.983 Y95.687 E4.68709
G1 X123.246 Y94.823 E4.71712
G1 X123.585 Y93.986 E4.74716
G1 X123.982 Y93.192 E4.77669
G1 X124.432 Y92.409 E4.80672
G1 X124.95 Y91.669 E4.83677
G1 X125.531 Y90.977 E4.86682
G1 X126.456 Y90.089 E4.90947
G1 X127.443 Y89.307 E4.95135
G1 X128.203 Y88.821 E4.98135
G1 X129.396 Y88.231 E5.02562
G1 X130.497 Y87.828 E5.06462
G1 X131.611 Y87.533 E5.10294
G1 X132.502 Y87.388 E5.13297
G1 X133.491 Y87.321 E5.16594
G1 X134.162 Y87.308 E5.18826
G1 X155.988 Y87.3 E5.9142
G1 X157.596 Y87.321 E5.96768
G0 F6000 X157.602 Y86.921
G1 F1200 X158.675 Y86.95 E6.00338
G1 X161.878 Y86.94 E6.10992
G1 X163.146 Y86.915 E6.1521
G1 X163.73 Y86.92 E6.17152
G1 X164.96 Y87.003 E6.21253
G1 X165.61 Y87.103 E6.2344
G1 X166.351 Y87.241 E6.25947
G1 X167.248 Y87.449 E6.2901
G1 X168.491 Y87.879 E6.33384
G1 X169.71 Y88.431 E6.37835
G1 X170.25 Y88.734 E6.39894
G1 X171.428 Y89.487 E6.44544
G1 X172.091 Y90.01 E6.47353
G1 X172.496 Y90.356 E6.49125
G1 X173.17 Y90.984 E6.52189
G1 X173.781 Y91.661 E6.55222
G1 X174.646 Y92.771 E6.59902
G1 X175.132 Y93.545 E6.62942
G1 X175.411 Y94.035 E6.64818
G1 X175.832 Y94.854 E6.6788
G1 X176.247 Y95.901 E6.71626
G1 X176.436 Y96.463 E6.73598
G1 X176.691 Y97.348 E6.76662
G1 X176.89 Y98.399 E6.8022
G1 X176.959 Y98.901 E6.81905
G1 X177.049 Y99.919 E6.85304
G1 X177.069 Y100.696 E6.87889
G1 X177.052 Y102.976 E6.95473
G1 X177.139 Y106.42 E7.06931
G1 X177.74 Y120.166 E7.52694
G1 X177.761 Y120.839 E7.54934
G1 X177.759 Y121.492 E7.57106
G1 X177.74 Y122.073 E7.59039
G1 X177.67 Y122.991 E7.62101
G1 X177.521 Y123.9 E7.65165
G1 X177.293 Y124.792 E7.68227
G1 X176.857 Y125.976 E7.72424
G1 X176.305 Y127.138 E7.76702
G1 X175.829 Y127.927 E7.79767
G1 X175.287 Y128.671 E7.82829
G1 X174.45 Y129.603 E7.86995
G1 X173.513 Y130.473 E7.91248
G1 X172.779 Y131.029 E7.9431
G1 X172 Y131.52 E7.97373
G1 X171.04 Y132.005 E8.0095
G1 X169.883 Y132.475 E8.05104
G1 X169 Y132.735 E8.08166
G1 X167.784 Y132.963 E8.1228
G1 X166.345 Y133.073 E8.17081
G1 X165.845 Y133.078 E8.18744
G1 X134.525 Y133.1 E9.22914
G1 X133.718 Y133.09 E9.25599
G1 X132.799 Y133.037 E9.2866
G1 X132.164 Y132.954 E9.3079
G1 X130.862 Y132.702 E9.35201
G1 X129.981 Y132.437 E9.38261
G1 X129.125 Y132.097 E9.41325
G1 X128.046 Y131.537 E9.45368
G1 X126.975 Y130.853 E9.49594
G1 X126.251 Y130.284 E9.52657
G1 X125.58 Y129.654 E9.55718
G1 X124.844 Y128.816 E9.59428
G1 X124.091 Y127.799 E9.63637
G1 X123.62 Y127.008 E9.66699
G1 X123.218 Y126.18 E9.6976
G1 X122.85 Y125.196 E9.73254
G1 X122.492 Y123.94 E9.77598
G1 X122.328 Y123.034 E9.80661
G1 X122.234 Y121.794 E9.84797
G1 X122.218 Y120.879 E9.8784
G1 X122.212 Y99.371 E10.59376
G1 X122.222 Y98.615 E10.61891
G1 X122.25 Y97.988 E10.63978
G1 X122.291 Y97.438 E10.65813
G1 X122.4 Y96.524 E10.68874
G1 X122.587 Y95.622 E10.71938
G1 X122.851 Y94.741 E10.74997
G1 X123.192 Y93.885 E10.78062
G1 X123.447 Y93.356 E10.80015
G1 X124.085 Y92.21 E10.84378
G1 X124.611 Y91.454 E10.87441
G1 X125.2 Y90.746 E10.90504
G1 X125.848 Y90.093 E10.93564
G1 X126.47 Y89.554 E10.96301
G1 X127.198 Y88.99 E10.99364
G1 X127.972 Y88.492 E11.02425
G1 X128.787 Y88.063 E11.05489
G1 X129.379 Y87.804 E11.07638
G1 X130.382 Y87.445 E11.11181
G1 X131.512 Y87.145 E11.1507
G1 X132.42 Y86.995 E11.18131
G1 X133.484 Y86.921 E11.21678
G1 X134.155 Y86.908 E11.2391
G1 X155.988 Y86.9 E11.96527
G1 X157.602 Y86.921 E12.01896
G1 F2700 E7.01896
;MESH:clip.stl
G0 F6000 X156.739 Y96.84
G0 X156.648 Y97.919
G0 X146.085 Y117.001
;TYPE:WALL-INNER
G1 F2700 E12.01896
G1 F1200 X147.892 Y116.563 E12.0808
G1 X149.499 Y115.66 E12.14211
G1 X150.825 Y114.385 E12.20329
G1 X151.769 Y112.809 E12.26439
G1 X152.264 Y111.067 E12.32463
G1 X152.315 Y109.274 E12.38429
G1 X151.892 Y107.485 E12.44543
G1 X151.02 Y105.876 E12.5063
G1 X149.798 Y104.572 E12.56574
G1 X148.293 Y103.626 E12.62486
G1 X146.603 Y103.084 E12.68389
G1 X146.553 Y103.082 E12.68555
G1 X144.876 Y102.983 E12.74143
G1 X144.824 Y102.979 E12.74316
G1 X143.237 Y103.295 E12.79698
G1 X143.08 Y103.327 E12.80231
G1 X141.614 Y104.03 E12.85639
G1 X140.736 Y104.681 E12.89274
G1 X139.628 Y105.846 E12.94622
G1 X139.604 Y105.891 E12.94791
G1 X138.764 Y107.415 E13.00579
G1 X138.327 Y109.139 E13.06494
G1 X138.33 Y110.963 E13.12561
G1 X138.819 Y112.728 E13.18653
G1 X139.723 Y114.292 E13.24661
G1 X141.017 Y115.573 E13.30717
G1 X142.553 Y116.478 E13.36647
G1 X144.276 Y116.964 E13.42601
G1 X146.085 Y117.001 E13.48619
G0 F6000 X146.041 Y116.6
G1 F1200 X147.744 Y116.187 E13.54447
G1 X149.259 Y115.336 E13.60227
G1 X150.509 Y114.134 E13.65995
G1 X151.399 Y112.649 E13.71753
G1 X151.866 Y111.006 E13.77434
G1 X151.914 Y109.315 E13.83061
G1 X151.515 Y107.629 E13.88823
G1 X150.693 Y106.112 E13.94562
G1 X149.541 Y104.883 E14.00164
G1 X148.123 Y103.991 E14.05736
G1 X146.529 Y103.48 E14.11304
G1 X146.479 Y103.478 E14.1147
G1 X144.904 Y103.385 E14.16718
G1 X144.852 Y103.381 E14.16891
G1 X143.208 Y103.709 E14.22467
G1 X141.822 Y104.374 E14.2758
G1 X141.002 Y104.982 E14.30975
G1 X139.953 Y106.084 E14.36036
G1 X139.929 Y106.129 E14.36205
G1 X139.139 Y107.563 E14.41651
G1 X138.727 Y109.189 E14.4723
G1 X138.73 Y110.908 E14.52947
G1 X139.191 Y112.572 E14.5869
G1 X140.043 Y114.045 E14.6435
G1 X141.263 Y115.254 E14.70062
G1 X142.711 Y116.107 E14.75652
G1 X144.335 Y116.565 E14.81264
G1 X146.041 Y116.6 E14.8694
G0 F6000 X145.997 Y116.199
G1 F1200 X147.596 Y115.811 E14.92412
G1 X149.019 Y115.012 E14.9784
G1 X150.193 Y113.883 E15.03257
G1 X151.029 Y112.489 E15.08664
G1 X151.468 Y110.945 E15.14003
G1 X151.513 Y109.356 E15.1929
G1 X151.138 Y107.773 E15.24701
G1 X150.366 Y106.348 E15.30091
G1 X149.284 Y105.194 E15.35352
G1 X147.953 Y104.356 E15.40584
G1 X146.455 Y103.876 E15.45816
G1 X146.405 Y103.874 E15.45982
G1 X144.932 Y103.787 E15.5089
G1 X144.88 Y103.783 E15.51063
G1 X143.336 Y104.091 E15.563
G1 X142.03 Y104.718 E15.61118
G1 X141.268 Y105.283 E15.64273
G1 X140.278 Y106.322 E15.69047
G1 X139.514 Y107.711 E15.74319
G1 X139.127 Y109.239 E15.79562
G1 X139.13 Y110.853 E15.8493
G1 X139.563 Y112.416 E15.90324
G1 X140.363 Y113.799 E15.95638
G1 X141.509 Y114.935 E16.01005
G1 X142.869 Y115.736 E16.06255
G1 X144.394 Y116.166 E16.11525
G1 X145.997 Y116.199 E16.16858
G0 F6000 X145.953 Y115.798
G1 F1200 X147.448 Y115.435 E16.21975
G1 X148.779 Y114.688 E16.27051
G1 X149.877 Y113.632 E16.32118
G1 X150.659 Y112.329 E16.37172
G1 X151.07 Y110.884 E16.42169
G1 X151.112 Y109.397 E16.47117
G1 X150.761 Y107.917 E16.52176
G1 X150.039 Y106.584 E16.57218
G1 X149.027 Y105.505 E16.62138
G1 X147.826 Y104.749 E16.66858
G1 X147.783 Y104.721 E16.67029
G1 X146.381 Y104.272 E16.71925
G1 X146.331 Y104.27 E16.72092
G1 X144.96 Y104.189 E16.7666
G1 X144.908 Y104.185 E16.76833
G1 X143.464 Y104.473 E16.8173
G1 X142.238 Y105.062 E16.86254
G1 X141.534 Y105.584 E16.89169
G1 X140.603 Y106.56 E16.93655
G1 X139.889 Y107.859 E16.98586
G1 X139.527 Y109.288 E17.03489
G1 X139.53 Y110.798 E17.08511
G1 X139.935 Y112.26 E17.13557
G1 X140.683 Y113.553 E17.18525
G1 X141.755 Y114.616 E17.23546
G1 X143.027 Y115.365 E17.28456
G1 X144.453 Y115.767 E17.33384
G1 X145.953 Y115.798 E17.38374
G0 F6000 X145.909 Y115.397
G1 F1200 X147.3 Y115.059 E17.43135
G1 X148.539 Y114.364 E17.4786
G1 X149.561 Y113.381 E17.52576
G1 X150.289 Y112.169 E17.57279
G1 X150.672 Y110.823 E17.61933
G1 X150.711 Y109.438 E17.66541
G1 X150.384 Y108.061 E17.71249
G1 X149.712 Y106.82 E17.75943
G1 X148.77 Y105.816 E17.80522
G1 X147.613 Y105.086 E17.85072
G1 X146.307 Y104.668 E17.89633
G1 X146.257 Y104.666 E17.89799
G1 X144.988 Y104.591 E17.94027
G1 X144.936 Y104.587 E17.94201
G1 X143.592 Y104.855 E17.98759
G1 X142.446 Y105.406 E18.02988
G1 X141.8 Y105.885 E18.05663
G1 X140.965 Y106.76 E18.09686
G1 X140.928 Y106.798 E18.09862
G1 X140.264 Y108.007 E18.1445
G1 X139.927 Y109.337 E18.19013
G1 X139.93 Y110.743 E18.23689
G1 X140.307 Y112.104 E18.28387
G1 X141.003 Y113.307 E18.33009
G1 X142.001 Y114.297 E18.37685
G1 X143.185 Y114.994 E18.42254
G1 X144.512 Y115.368 E18.4684
G1 X145.909 Y115.397 E18.51487
G0 F6000 X145.865 Y114.996
G1 F1200 X147.152 Y114.683 E18.55893
G1 X148.299 Y114.04 E18.60266
G1 X149.245 Y113.13 E18.64632
G1 X149.919 Y112.008 E18.68985
G1 X150.274 Y110.762 E18.73295
G1 X150.31 Y109.479 E18.77564
G1 X150.007 Y108.205 E18.81919
G1 X149.385 Y107.056 E18.86265
G1 X148.513 Y106.127 E18.90502
G1 X147.443 Y105.451 E18.94712
G1 X146.233 Y105.064 E18.98937
G1 X146.183 Y105.062 E18.99104
G1 X145.016 Y104.993 E19.02992
G1 X144.964 Y104.989 E19.03165
G1 X143.72 Y105.237 E19.07384
G1 X142.654 Y105.75 E19.11319
G1 X142.066 Y106.186 E19.13754
G1 X141.253 Y107.036 E19.17666
G1 X140.639 Y108.155 E19.21911
G1 X140.327 Y109.386 E19.26135
G1 X140.33 Y110.688 E19.30466
G1 X140.679 Y111.948 E19.34814
G1 X141.323 Y113.061 E19.39091
G1 X142.247 Y113.978 E19.43421
G1 X143.343 Y114.623 E19.4765
G1 X144.571 Y114.969 E19.51894
G1 X145.865 Y114.996 E19.56199
G0 F6000 X145.821 Y114.595
G1 F1200 X147.004 Y114.307 E19.60248
G1 X148.059 Y113.716 E19.6427
G1 X148.929 Y112.879 E19.68286
G1 X149.549 Y111.847 E19.7229
G1 X149.876 Y110.701 E19.76254
G1 X149.909 Y109.52 E19.80183
G1 X149.63 Y108.349 E19.84187
G1 X149.058 Y107.292 E19.88184
G1 X148.256 Y106.438 E19.92081
G1 X147.272 Y105.816 E19.95953
G1 X146.159 Y105.46 E19.99839
G1 X146.109 Y105.458 E20.00006
G1 X145.044 Y105.395 E20.03554
G1 X144.992 Y105.391 E20.03728
G1 X143.848 Y105.619 E20.07607
G1 X142.862 Y106.094 E20.11248
G1 X142.332 Y106.487 E20.13442
G1 X141.578 Y107.275 E20.17069
G1 X141.014 Y108.303 E20.20969
G1 X140.727 Y109.435 E20.24854
G1 X140.73 Y110.633 E20.28838
G1 X141.051 Y111.792 E20.32838
G1 X141.643 Y112.815 E20.36769
G1 X142.493 Y113.659 E20.40753
G1 X143.501 Y114.252 E20.44643
G1 X144.63 Y114.57 E20.48544
G1 X145.821 Y114.595 E20.52506
G0 F6000 X145.777 Y114.194
G1 F1200 X146.856 Y113.931 E20.562
G1 X147.819 Y113.392 E20.59871
G1 X148.613 Y112.628 E20.63536
G1 X149.179 Y111.686 E20.67191
G1 X149.478 Y110.64 E20.70809
G1 X149.508 Y109.562 E20.74396
G1 X149.253 Y108.493 E20.78051
G1 X148.731 Y107.528 E20.817
G1 X147.999 Y106.749 E20.85256
G1 X147.101 Y106.181 E20.8879
G1 X146.085 Y105.856 E20.92338
G1 X146.035 Y105.854 E20.92504
G1 X145.072 Y105.797 E20.95713
G1 X145.02 Y105.793 E20.95886
G1 X143.976 Y106.001 E20.99427
G1 X143.07 Y106.438 E21.02772
G1 X142.597 Y106.788 E21.04729
G1 X141.903 Y107.513 E21.08067
G1 X141.389 Y108.451 E21.11625
G1 X141.127 Y109.484 E21.1517
G1 X141.13 Y110.578 E21.18808
G1 X141.423 Y111.636 E21.2246
G1 X141.963 Y112.569 E21.26045
G1 X142.739 Y113.34 E21.29683
G1 X143.659 Y113.881 E21.33233
G1 X144.689 Y114.171 E21.36792
G1 X145.777 Y114.194 E21.40412
G0 F6000 X145.733 Y113.793
G1 F1200 X146.708 Y113.555 E21.4375
G1 X147.579 Y113.068 E21.47069
G1 X148.297 Y112.377 E21.50383
G1 X148.809 Y111.525 E21.53689
G1 X149.08 Y110.578 E21.56965
G1 X149.107 Y109.604 E21.60206
G1 X148.876 Y108.637 E21.63513
G1 X148.404 Y107.764 E21.66814
G1 X147.742 Y107.06 E21.70028
G1 X146.93 Y106.546 E21.73224
G1 X146.011 Y106.252 E21.76433
G1 X145.961 Y106.25 E21.766
G1 X145.101 Y106.199 E21.79465
G1 X145.048 Y106.195 E21.79642
G1 X144.104 Y106.383 E21.82843
G1 X143.278 Y106.782 E21.85894
G1 X142.862 Y107.089 E21.87614
G1 X142.228 Y107.751 E21.90663
G1 X141.764 Y108.599 E21.93878
G1 X141.527 Y109.533 E21.97083
G1 X141.53 Y110.523 E22.00376
G1 X141.795 Y111.48 E22.03678
G1 X142.283 Y112.323 E22.06918
G1 X142.985 Y113.021 E22.10211
G1 X143.817 Y113.51 E22.1342
G1 X144.748 Y113.772 E22.16637
G1 X145.733 Y113.793 E22.19914
G0 F6000 X145.689 Y113.392
G1 F1200 X146.56 Y113.179 E22.22896
G1 X147.339 Y112.744 E22.25864
G1 X147.981 Y112.126 E22.28828
G1 X148.439 Y111.364 E22.31785
G1 X148.682 Y110.516 E22.34719
G1 X148.706 Y109.646 E22.37614
G1 X148.499 Y108.781 E22.40572
G1 X148.077 Y108 E22.43524
G1 X147.485 Y107.371 E22.46397
G1 X146.759 Y106.911 E22.49256
G1 X145.937 Y106.648 E22.52126
G1 X145.887 Y106.646 E22.52293
G1 X145.129 Y106.601 E22.54818
G1 X145.076 Y106.597 E22.54995
G1 X144.232 Y106.765 E22.57857
G1 X143.485 Y107.126 E22.60617
G1 X143.127 Y107.39 E22.62096
G1 X142.554 Y107.989 E22.64853
G1 X142.139 Y108.747 E22.67728
G1 X141.927 Y109.582 E22.70593
G1 X141.93 Y110.468 E22.7354
G1 X142.167 Y111.324 E22.76494
G1 X142.603 Y112.077 E22.79388
G1 X143.231 Y112.702 E22.82335
G1 X143.975 Y113.139 E22.85205
G1 X144.807 Y113.373 E22.88079
G1 X145.689 Y113.392 E22.91014
G0 F6000 X145.645 Y112.991
G1 F1200 X146.412 Y112.803 E22.9364
G1 X147.099 Y112.42 E22.96256
G1 X147.665 Y111.875 E22.9887
G1 X148.069 Y111.203 E23.01477
G1 X148.284 Y110.454 E23.04069
G1 X148.305 Y109.688 E23.06618
G1 X148.122 Y108.925 E23.09228
G1 X147.75 Y108.236 E23.11832
G1 X147.228 Y107.682 E23.14364
G1 X146.588 Y107.276 E23.16884
G1 X145.863 Y107.044 E23.19416
G1 X145.813 Y107.042 E23.19583
G1 X145.157 Y107.003 E23.21768
G1 X145.104 Y106.999 E23.21945
G1 X144.36 Y107.147 E23.24468
G1 X143.692 Y107.47 E23.26936
G1 X143.392 Y107.691 E23.28175
G1 X143.369 Y107.716 E23.28288
G1 X142.88 Y108.227 E23.30641
