;FLAVOR:Marlin
;TIME:3192
;Filament used: 1.96895m
;Layer height: 0.2
;MINX:122.212
;MINY:86.9
;MINZ:0.2
;MAXX:177.761
;MAXY:133.1
;MAXZ:15
;Generated with Cura_SteamEngine 4.6.1
M140 S50
M105
M190 S50
M104 S200
M105
M109 S200
M82 ;absolute extrusion mode
M201 X500.00 Y500.00 Z100.00 E5000.00 ;Setup machine max acceleration
M203 X500.00 Y500.00 Z10.00 E50.00 ;Setup machine max feedrate
M204 P500.00 R1000.00 T500.00 ;Setup Print/Retract/Travel acceleration
M205 X8.00 Y8.00 Z0.40 E5.00 ;Setup Jerk
M220 S100 ;Reset Feedrate
M221 S100 ;Reset Flowrate

G28 ;Home
G29 ;Autolevel

G92 E0 ;Reset Extruder
G1 Z2.0 F3000 ;Move Z Axis up
G1 X10.1 Y20 Z0.28 F5000.0 ;Move to start position
G1 X10.1 Y200.0 Z0.28 F1500.0 E15 ;Draw the first line
G1 X10.4 Y200.0 Z0.28 F5000.0 ;Move to side a little
G1 X10.4 Y20 Z0.28 F1500.0 E30 ;Draw the second line
G92 E0 ;Reset Extruder
G1 Z2.0 F3000 ;Move Z Axis up
G92 E0
G92 E0
G1 F2700 E-5
;LAYER_COUNT:75
;LAYER:0
M107
G0 F6000 X157.596 Y87.321 Z0.2
;TYPE:SKIRT
G1 F2700 E0
G1 F1200 X158.665 Y87.35 E0.03557
G1 X161.887 Y87.34 E0.14273
G1 X163.154 Y87.315 E0.18488
G1 X163.716 Y87.319 E0.20357
G1 X164.929 Y87.402 E0.24401
G1 X165.536 Y87.496 E0.26444
G1 X166.277 Y87.634 E0.28951
G1 X167.157 Y87.839 E0.31956
G1 X168.337 Y88.248 E0.3611
G1 X169.54 Y88.793 E0.40503
G1 X170.044 Y89.077 E0.42427
G1 X171.207 Y89.821 E0.47019
G1 X171.831 Y90.314 E0.49664
G1 X172.236 Y90.66 E0.51436
G1 X172.896 Y91.276 E0.54438
G1 X173.473 Y91.916 E0.57304
G1 X174.327 Y93.012 E0.61926
G1 X174.785 Y93.743 E0.64795
G1 X175.064 Y94.233 E0.6667
G1 X175.476 Y95.037 E0.69675
G1 X175.868 Y96.029 E0.73223
G1 X176.057 Y96.591 E0.75195
G1 X176.307 Y97.459 E0.78199
G1 X176.494 Y98.453 E0.81563
G1 X176.563 Y98.955 E0.83249
G1 X176.65 Y99.935 E0.86521
G1 X176.669 Y100.693 E0.89043
G1 X176.652 Y102.983 E0.9666
G1 X176.739 Y106.447 E1.08184
G1 X177.34 Y120.183 E1.53914
G1 X177.361 Y120.85 E1.56134
G1 X177.36 Y121.479 E1.58226
G1 X177.341 Y122.06 E1.60159
G1 X177.271 Y122.961 E1.63165
G1 X177.122 Y123.852 E1.6617
G1 X176.895 Y124.726 E1.69173
G1 X176.491 Y125.815 E1.73036
G1 X175.946 Y126.962 E1.7726
G1 X175.477 Y127.734 E1.80264
G1 X174.942 Y128.462 E1.83269
G1 X174.169 Y129.318 E1.87105
G1 X173.244 Y130.176 E1.91302
G1 X172.523 Y130.72 E1.94306
G1 X171.757 Y131.198 E1.97309
G1 X170.878 Y131.64 E2.00581
G1 X169.737 Y132.102 E2.04676
G1 X168.87 Y132.355 E2.07679
G1 X167.734 Y132.566 E2.11522
G1 X166.341 Y132.673 E2.16169
G1 X134.525 Y132.7 E3.2199
G1 X133.724 Y132.69 E3.24654
G1 X132.822 Y132.638 E3.27659
G1 X132.228 Y132.559 E3.29652
G1 X130.944 Y132.31 E3.34002
G1 X130.079 Y132.048 E3.37008
G1 X129.242 Y131.711 E3.40009
G1 X128.25 Y131.193 E3.43732
G1 X127.194 Y130.518 E3.479
G1 X126.486 Y129.958 E3.50902
G1 X125.83 Y129.337 E3.53907
G1 X125.158 Y128.568 E3.57304
G1 X124.416 Y127.564 E3.61456
G1 X123.955 Y126.788 E3.64458
G1 X123.565 Y125.973 E3.67463
G1 X123.231 Y125.074 E3.70653
G1 X122.878 Y123.835 E3.74938
G1 X122.72 Y122.946 E3.77941
G1 X122.634 Y121.787 E3.81806
G1 X122.618 Y120.872 E3.8485
G1 X122.612 Y99.371 E4.56363
G1 X122.622 Y98.621 E4.58857
G1 X122.649 Y98.018 E4.60865
G1 X122.69 Y97.468 E4.62699
G1 X122.797 Y96.571 E4.65704
G1 X122.983 Y95.687 E4.68709
G1 X123.246 Y94.823 E4.71712
G1 X123.585 Y93.986 E4.74716
G1 X123.982 Y93.192 E4.77669
G1 X124.432 Y92.409 E4.80672
G1 X124.95 Y91.669 E4.83677
G1 X125.531 Y90.977 E4.86682
G1 X126.456 Y90.089 E4.90947
G1 X127.443 Y89.307 E4.95135
G1 X128.203 Y88.821 E4.98135
G1 X129.396 Y88.231 E5.02562
G1 X130.497 Y87.828 E5.06462
G1 X131.611 Y87.533 E5.10294
G1 X132.502 Y87.388 E5.13297
G1 X133.491 Y87.321 E5.16594
G1 X134.162 Y87.308 E5.18826
G1 X155.988 Y87.3 E5.9142
G1 X157.596 Y87.321 E5.96768
G0 F6000 X157.602 Y86.921
G1 F1200 X158.675 Y86.95 E6.00338
G1 X161.878 Y86.94 E6.10992
G1 X163.146 Y86.915 E6.1521
G1 X163.73 Y86.92 E6.17152
G1 X164.96 Y87.003 E6.21253
G1 X165.61 Y87.103 E6.2344
G1 X166.351 Y87.241 E6.25947
G1 X167.248 Y87.449 E6.2901
G1 X168.491 Y87.879 E6.33384
G1 X169.71 Y88.431 E6.37835
G1 X170.25 Y88.734 E6.39894
G1 X171.428 Y89.487 E6.44544
G1 X172.091 Y90.01 E6.47353
G1 X172.496 Y90.356 E6.49125
G1 X173.17 Y90.984 E6.52189
G1 X173.781 Y91.661 E6.55222
G1 X174.646 Y92.771 E6.59902
G1 X175.132 Y93.545 E6.62942
G1 X175.411 Y94.035 E6.64818
G1 X175.832 Y94.854 E6.6788
G1 X176.247 Y95.901 E6.71626
G1 X176.436 Y96.463 E6.73598
G1 X176.691 Y97.348 E6.76662
G1 X176.89 Y98.399 E6.8022
G1 X176.959 Y98.901 E6.81905
G1 X177.049 Y99.919 E6.85304
G1 X177.069 Y100.696 E6.87889
G1 X177.052 Y102.976 E6.95473
G1 X177.139 Y106.42 E7.06931
G1 X177.74 Y120.166 E7.52694
G1 X177.761 Y120.839 E7.54934
G1 X177.759 Y121.492 E7.57106
G1 X177.74 Y122.073 E7.59039
G1 X177.67 Y122.991 E7.62101
G1 X177.521 Y123.9 E7.65165
G1 X177.293 Y124.792 E7.68227
G1 X176.857 Y125.976 E7.72424
G1 X176.305 Y127.138 E7.76702
G1 X175.829 Y127.927 E7.79767
G1 X175.287 Y128.671 E7.82829
G1 X174.45 Y129.603 E7.86995
G1 X173.513 Y130.473 E7.91248
G1 X172.779 Y131.029 E7.9431
G1 X172 Y131.52 E7.97373
G1 X171.04 Y132.005 E8.0095
G1 X169.883 Y132.475 E8.05104
G1 X169 Y132.735 E8.08166
G1 X167.784 Y132.963 E8.1228
G1 X166.345 Y133.073 E8.17081
G1 X165.845 Y133.078 E8.18744
G1 X134.525 Y133.1 E9.22914
G1 X133.718 Y133.09 E9.25599
G1 X132.799 Y133.037 E9.2866
G1 X132.164 Y132.954 E9.3079
G1 X130.862 Y132.702 E9.35201
G1 X129.981 Y132.437 E9.38261
G1 X129.125 Y132.097 E9.41325
G1 X128.046 Y131.537 E9.45368
G1 X126.975 Y130.853 E9.49594
G1 X126.251 Y130.284 E9.52657
G1 X125.58 Y129.654 E9.55718
G1 X124.844 Y128.816 E9.59428
G1 X124.091 Y127.799 E9.63637
G1 X123.62 Y127.008 E9.66699
G1 X123.218 Y126.18 E9.6976
G1 X122.85 Y125.196 E9.73254
G1 X122.492 Y123.94 E9.77598
G1 X122.328 Y123.034 E9.80661
G1 X122.234 Y121.794 E9.84797
G1 X122.218 Y120.879 E9.8784
G1 X122.212 Y99.371 E10.59376
G1 X122.222 Y98.615 E10.61891
G1 X122.25 Y97.988 E10.63978
G1 X122.291 Y97.438 E10.65813
G1 X122.4 Y96.524 E10.68874
G1 X122.587 Y95.622 E10.71938
G1 X122.851 Y94.741 E10.74997
G1 X123.192 Y93.885 E10.78062
G1 X123.447 Y93.356 E10.80015
G1 X124.085 Y92.21 E10.84378
G1 X124.611 Y91.454 E10.87441
G1 X125.2 Y90.746 E10.90504
G1 X125.848 Y90.093 E10.93564
G1 X126.47 Y89.554 E10.96301
G1 X127.198 Y88.99 E10.99364
G1 X127.972 Y88.492 E11.02425
G1 X128.787 Y88.063 E11.05489
G1 X129.379 Y87.804 E11.07638
G1 X130.382 Y87.445 E11.11181
G1 X131.512 Y87.145 E11.1507
G1 X132.42 Y86.995 E11.18131
G1 X133.484 Y86.921 E11.21678
G1 X134.155 Y86.908 E11.2391
G1 X155.988 Y86.9 E11.96527
G1 X157.602 Y86.921 E12.01896
G1 F2700 E7.01896
;MESH:clip.stl
G0 F6000 X146.16 Y108.975
G0 X147.608 Y107.223
G0 X147.743 Y109.747
G0 X147.55 Y110.977
G0 X145.689 Y113.392
;TYPE:WALL-INNER
G1 F2700 E12.01896
G1 F1200 X146.56 Y113.179 E12.04878
G1 X147.339 Y112.744 E12.07846
G1 X147.981 Y112.126 E12.10809
G1 X148.439 Y111.364 E12.13766
G1 X148.682 Y110.516 E12.167
G1 X148.706 Y109.646 E12.19595
G1 X148.499 Y108.781 E12.22553
G1 X148.077 Y108 E12.25506
G1 X147.485 Y107.371 E12.28379
G1 X146.759 Y106.911 E12.31237
G1 X145.937 Y106.648 E12.34108
G1 X145.887 Y106.646 E12.34274
G1 X145.129 Y106.601 E12.368
G1 X145.076 Y106.597 E12.36977
G1 X144.232 Y106.765 E12.39839
G1 X143.485 Y107.126 E12.42598
G1 X143.127 Y107.39 E12.44078
G1 X142.554 Y107.989 E12.46835
G1 X142.139 Y108.747 E12.49709
G1 X141.927 Y109.582 E12.52574
G1 X141.93 Y110.468 E12.55521
G1 X142.167 Y111.324 E12.58475
G1 X142.603 Y112.077 E12.6137
G1 X143.231 Y112.702 E12.64316
G1 X143.975 Y113.139 E12.67186
G1 X144.807 Y113.373 E12.70061
G1 X145.689 Y113.392 E12.72995
G0 F6000 X145.645 Y112.991
G1 F1200 X146.412 Y112.803 E12.75622
G1 X147.099 Y112.42 E12.78238
G1 X147.665 Y111.875 E12.80851
G1 X148.069 Y111.203 E12.83459
G1 X148.284 Y110.454 E12.86051
G1 X148.305 Y109.688 E12.88599
G1 X148.122 Y108.925 E12.91209
G1 X147.75 Y108.236 E12.93813
G1 X147.228 Y107.682 E12.96345
G1 X146.588 Y107.276 E12.98866
G1 X145.863 Y107.044 E13.01398
G1 X145.813 Y107.042 E13.01564
G1 X145.157 Y107.003 E13.0375
G1 X145.104 Y106.999 E13.03927
G1 X144.36 Y107.147 E13.0645
G1 X143.692 Y107.47 E13.08918
G1 X143.392 Y107.691 E13.10157
G1 X143.369 Y107.716 E13.1027
G1 X142.88 Y108.227 E13.12622
G1 X142.514 Y108.895 E13.15156
G1 X142.327 Y109.631 E13.17682
G1 X142.33 Y110.413 E13.20282
G1 X142.539 Y111.168 E13.22888
G1 X142.923 Y111.831 E13.25436
G1 X143.477 Y112.383 E13.28038
G1 X144.133 Y112.768 E13.30567
G1 X144.866 Y112.974 E13.331
G1 X145.645 Y112.991 E13.35691
G0 F6000 X145.601 Y112.59
G1 F1200 X146.264 Y112.427 E13.37962
G1 X146.859 Y112.096 E13.40227
G1 X147.349 Y111.624 E13.4249
G1 X147.699 Y111.042 E13.44748
G1 X147.886 Y110.392 E13.46998
G1 X147.904 Y109.73 E13.49201
G1 X147.745 Y109.069 E13.51462
G1 X147.423 Y108.472 E13.53718
G1 X146.971 Y107.993 E13.55908
G1 X146.417 Y107.641 E13.58092
G1 X145.789 Y107.44 E13.60285
G1 X145.132 Y107.401 E13.62474
G1 X144.488 Y107.529 E13.64658
G1 X143.899 Y107.814 E13.66834
G1 X143.657 Y107.992 E13.67833
G1 X143.206 Y108.465 E13.70007
G1 X142.889 Y109.043 E13.72199
G1 X142.727 Y109.68 E13.74385
G1 X142.73 Y110.358 E13.7664
G1 X142.911 Y111.012 E13.78897
G1 X143.243 Y111.585 E13.811
G1 X143.723 Y112.064 E13.83355
G1 X144.291 Y112.397 E13.85545
G1 X144.925 Y112.575 E13.87736
G1 X145.601 Y112.59 E13.89985
G0 F6000 X145.557 Y112.189
;TYPE:WALL-OUTER
G1 F1200 X146.116 Y112.051 E13.919
G1 X146.619 Y111.772 E13.93813
G1 X147.033 Y111.373 E13.95725
G1 X147.329 Y110.881 E13.97635
G1 X147.488 Y110.33 E13.99542
G1 X147.503 Y109.772 E14.01399
G1 X147.368 Y109.213 E14.03312
G1 X147.096 Y108.708 E14.05219
G1 X146.714 Y108.304 E14.07069
G1 X146.246 Y108.006 E14.08914
G1 X145.715 Y107.836 E14.10768
G1 X145.16 Y107.803 E14.12618
G1 X144.616 Y107.911 E14.14462
G1 X144.106 Y108.158 E14.16347
G1 X143.922 Y108.293 E14.17106
G1 X143.532 Y108.703 E14.18988
G1 X143.264 Y109.191 E14.2084
G1 X143.127 Y109.729 E14.22686
G1 X143.13 Y110.303 E14.24595
G1 X143.283 Y110.856 E14.26504
G1 X143.563 Y111.339 E14.28361
G1 X143.969 Y111.745 E14.3027
G1 X144.449 Y112.026 E14.3212
G1 X144.984 Y112.176 E14.33968
G1 X145.557 Y112.189 E14.35875
G0 F6000 X145.605 Y112.626
G1 F2700 E9.35875
G0 F6000 X146.762 Y111.966
G0 X147.314 Y111.369
G0 X148.679 Y108.712
G0 X146.554 Y109.524
G0 X158.468 Y108.704
G0 X156.194 Y108.706
G0 X157.373 Y108.677
G0 X157.373 Y118.385
G0 X157.663 Y119.379
G0 X158.538 Y119.921
G0 X163.271 Y119.939
G0 X164.223 Y119.587
G0 X164.704 Y118.638
G0 X164.022 Y103.085
G0 X163.256 Y102.08
;TYPE:WALL-INNER
G1 F2700 E14.35875
G1 F1200 X163.012 Y102.026 E14.36706
G1 X162.742 Y101.915 E14.37677
G1 X162.512 Y101.77 E14.38581
G1 X162.302 Y101.577 E14.3953
G1 X162.135 Y101.359 E14.40443
G1 X162.01 Y101.12 E14.4134
G1 X161.921 Y100.842 E14.42311
G1 X161.886 Y100.587 E14.43167
G1 X161.901 Y100.272 E14.44216
G1 X161.96 Y100.009 E14.45113
G1 X162.065 Y99.762 E14.46005
G1 X162.216 Y99.525 E14.4694
G1 X162.41 Y99.316 E14.47888
G1 X162.623 Y99.153 E14.4878
G1 X162.887 Y99.019 E14.49765
G1 X163.146 Y98.941 E14.50665
G1 X163.438 Y98.906 E14.51643
G1 X163.694 Y98.919 E14.52495
G1 X163.988 Y98.989 E14.53501
G1 X164.245 Y99.102 E14.54434
G1 X164.474 Y99.253 E14.55347
G1 X164.672 Y99.443 E14.56259
G1 X164.841 Y99.672 E14.57206
G1 X164.961 Y99.912 E14.58098
G1 X165.041 Y100.19 E14.59061
G1 X165.072 Y100.477 E14.60021
G1 X165.053 Y100.75 E14.60931
G1 X164.906 Y101.345 E14.62969
G1 X164.932 Y101.932 E14.64924
G1 X164.933 Y101.934 E14.64931
G1 X164.941 Y102.149 E14.65647
G1 X164.726 Y102.142 E14.66101
G1 X164.725 Y102.141 E14.66106
G1 X163.256 Y102.08 E14.70996
G0 F6000 X163.208 Y102.479
G1 F1200 X162.889 Y102.408 E14.72083
G1 X162.558 Y102.272 E14.73273
G1 X162.265 Y102.087 E14.74426
G1 X162.007 Y101.85 E14.75591
G1 X161.798 Y101.577 E14.76734
G1 X161.639 Y101.274 E14.77872
G1 X161.53 Y100.933 E14.79063
G1 X161.491 Y100.641 E14.80043
G1 X161.485 Y100.601 E14.80177
G1 X161.502 Y100.222 E14.81439
G1 X161.578 Y99.887 E14.82582
G1 X161.71 Y99.575 E14.83709
G1 X161.901 Y99.276 E14.84889
G1 X162.136 Y99.022 E14.8604
G1 X162.381 Y98.836 E14.87063
G1 X162.411 Y98.813 E14.87188
G1 X162.441 Y98.798 E14.873
G1 X162.738 Y98.646 E14.8841
G1 X163.064 Y98.548 E14.89542
G1 X163.422 Y98.505 E14.90741
G1 X163.753 Y98.522 E14.91843
G1 X164.118 Y98.609 E14.93091
G1 X164.434 Y98.747 E14.94238
G1 X164.728 Y98.942 E14.95412
G1 X164.974 Y99.178 E14.96546
G1 X165.182 Y99.459 E14.97708
G1 X165.335 Y99.766 E14.98849
G1 X165.436 Y100.116 E15.00061
G1 X165.474 Y100.467 E15.01235
G1 X165.45 Y100.811 E15.02382
G1 X165.308 Y101.385 E15.04349
G1 X166.174 Y121.201 E15.7032
G1 X166.179 Y121.331 E15.70753
G1 X166.17 Y121.478 E15.71242
G1 X166.039 Y121.478 E15.71678
G1 X134.054 Y121.5 E16.78061
G1 X133.906 Y121.5 E16.78553
G1 X133.826 Y121.486 E16.78823
G1 X133.816 Y121.452 E16.78941
G1 X133.816 Y121.304 E16.79433
G1 X133.812 Y98.692 E17.54641
G1 X133.829 Y98.514 E17.55236
G1 X133.855 Y98.506 E17.55326
G1 X156.619 Y98.5 E18.3104
G1 X156.795 Y98.516 E18.31627
G1 X156.812 Y118.413 E18.97805
G1 X156.872 Y119.056 E18.99953
G1 X157.208 Y119.726 E19.02446
G1 X157.745 Y120.211 E19.04853
G1 X158.429 Y120.482 E19.073
G1 X163.315 Y120.5 E19.23551
G1 X163.952 Y120.397 E19.25697
G1 X164.6 Y120.016 E19.28197
G1 X165.069 Y119.41 E19.30746
G1 X165.268 Y118.704 E19.33185
G1 X164.57 Y102.535 E19.87014
G1 X163.208 Y102.479 E19.91548
G0 F6000 X163.16 Y102.878
G1 F1200 X162.766 Y102.79 E19.9289
G1 X162.373 Y102.628 E19.94304
G1 X162.022 Y102.406 E19.95686
G1 X161.711 Y102.121 E19.97089
G1 X161.46 Y101.794 E19.9846
G1 X161.268 Y101.428 E19.99834
G1 X161.139 Y101.024 E20.01245
G1 X161.09 Y100.655 E20.02483
G1 X161.084 Y100.615 E20.02618
G1 X161.103 Y100.17 E20.04099
G1 X161.195 Y99.766 E20.05477
G1 X161.356 Y99.385 E20.06853
G1 X161.582 Y99.032 E20.08247
G1 X161.866 Y98.726 E20.09635
G1 X161.894 Y98.705 E20.09752
G1 X162.198 Y98.473 E20.11024
G1 X162.589 Y98.273 E20.12484
G1 X162.982 Y98.155 E20.13849
G1 X163.406 Y98.104 E20.1527
G1 X163.812 Y98.125 E20.16622
G1 X164.248 Y98.229 E20.18113
G1 X164.626 Y98.394 E20.19484
G1 X164.976 Y98.627 E20.20883
G1 X165.003 Y98.653 E20.21008
G1 X165.275 Y98.913 E20.22259
G1 X165.525 Y99.25 E20.23655
G1 X165.709 Y99.62 E20.25029
G1 X165.831 Y100.042 E20.2649
G1 X165.876 Y100.457 E20.27878
G1 X165.847 Y100.872 E20.29262
G1 X165.71 Y101.425 E20.31157
G1 X166.579 Y121.325 E20.97408
G1 X166.564 Y121.601 E20.98327
G1 X166.509 Y121.722 E20.98769
G1 X166.397 Y121.829 E20.99284
G1 X166.277 Y121.878 E20.99715
G1 X133.868 Y121.9 E22.07508
G1 X133.675 Y121.865 E22.08161
G1 X133.558 Y121.795 E22.08614
G1 X133.467 Y121.68 E22.09102
G1 X133.444 Y121.601 E22.09376
G1 X133.435 Y121.569 E22.09486
G1 X133.416 Y121.509 E22.09695
G1 X133.412 Y98.676 E22.85638
G1 X133.439 Y98.387 E22.86604
G1 X133.509 Y98.257 E22.87095
G1 X133.624 Y98.16 E22.87595
G1 X133.792 Y98.106 E22.88182
G1 X156.631 Y98.1 E23.64145
G1 X156.915 Y98.125 E23.65093
G1 X157.044 Y98.188 E23.65571
G1 X157.149 Y98.305 E23.66094
G1 X157.195 Y98.427 E23.66527
G1 X157.212 Y118.394 E24.32938
G1 X157.263 Y118.944 E24.34775
G1 X157.532 Y119.479 E24.36767
G1 X157.96 Y119.866 E24.38686
G1 X158.506 Y120.082 E24.40639
G1 X163.284 Y120.1 E24.56531
G1 X163.814 Y120.014 E24.58316
G1 X164.331 Y119.71 E24.60311
G1 X164.705 Y119.227 E24.62343
G1 X164.866 Y118.657 E24.64313
G1 X164.186 Y102.92 E25.16703
G1 X163.16 Y102.878 E25.20119
G1 F2700 E20.20119
G0 F6000 X164.022 Y103.085
G0 X164.704 Y118.638
G0 X164.223 Y119.587
G0 X163.271 Y119.939
G0 X158.538 Y119.921
G0 X157.663 Y119.379
G0 X156.395 Y98.9
G1 F2700 E25.20119
G1 F1200 X156.412 Y118.432 E25.85082
G1 X156.481 Y119.168 E25.87541
G1 X156.884 Y119.972 E25.90532
G1 X157.531 Y120.556 E25.93431
G1 X157.873 Y120.692 E25.94655
G1 X158.352 Y120.882 E25.96369
G1 X163.346 Y120.9 E26.12979
G1 X164.09 Y120.78 E26.15486
G1 X164.249 Y120.687 E26.16099
G1 X164.869 Y120.322 E26.18492
G1 X165.324 Y119.733 E26.20967
G1 X165.433 Y119.593 E26.21557
G1 X165.666 Y118.764 E26.24421
G1 X165.701 Y119.581 E26.25309
G1 X165.708 Y119.758 E26.25807
G1 X165.758 Y120.871 E26.29513
G1 X165.767 Y121.078 E26.30202
G1 X165.56 Y121.078 E26.30642
G1 X165.559 Y121.078 E26.30645
G1 X164.276 Y121.078 E26.34913
